images/RMRK-app.svg

<svg viewBox="0 0 570 126" xmlns="http://www.w3.org/2000/svg"><g fill="#dc127c"><path d="m86.14 125.1h-13.75v-40.8c0-9-4.54-12.8-9.22-13.4v-.3c5.74-1.2 9.22-4.82 9.22-14.15v-33.87c0-4.22-2.57-6-6.35-6h-46.24v108.52h-13.8v-120.44h58.83c13.75 0 21.31 5.42 21.31 19.72v30.87c0 9.18-4.23 13.54-11.18 15.5v.3c6.65.76 11.18 5 11.18 14.15zm-17.53-67.1c0 7.22-5.44 11-12.39 11h-32.64v-48.68h41.1c3 0 3.93.75 3.93 4.22zm0 67.14h-13.75v-40.54h-17.53v40.5h-13.75v-52.39h32.64c6.5 0 12.39 3.76 12.39 10.69zm-13.75-68v-24.78h-17.53v24.69z"/><path d="m215.35 125.1h-13.75v-108.54h-3.93l-40.95 70.9-41-70.9h-3.72v108.54h-13.77v-120.44h24.48l34.16 61.27 33.7-61.27h24.78zm-17.53 0h-13.3v-53.29l-25.69 43.05h-4.08l-25.69-43.36v53.6h-13.3v-101.47l39.45 68.2h3l39.59-68.2z"/><path d="m307.54 125.1h-13.75v-40.8c0-9-4.54-12.8-9.22-13.4v-.3c5.74-1.2 9.22-4.82 9.22-14.15v-33.87c0-4.22-2.57-6-6.35-6h-46.24v108.52h-13.75v-120.44h58.78c13.75 0 21.31 5.42 21.31 19.72v30.87c0 9.18-4.23 13.54-11.18 15.5v.3c6.65.76 11.18 5 11.18 14.15zm-17.54-67.1c0 7.22-5.44 11-12.39 11h-32.61v-48.68h41.1c3 0 3.93.75 3.93 4.22zm0 67.14h-13.74v-40.54h-17.53v40.5h-13.73v-52.39h32.64c6.5 0 12.39 3.76 12.39 10.69zm-13.75-68v-24.78h-17.52v24.69z"/><path d="m333.38 125.1h-13.75v-120.44h13.75zm48.82-120.44-22.82 61.42h-22.22v-61.42h13.76v49.53h.9l16.78-49.53zm0 120.44h-13.75v-43.36h-17.53v43.36h-13.76v-55.25h32.65c7.7 0 12.39 3.76 12.39 10.69zm17.53 0h-13.73v-45.77c0-8-6.05-13.25-15-13.25h-7.55l22.68-61.42h13.6l-19.8 52.69h1.81a18.15 18.15 0 0 1 18 18.22z"/><text font-family="BDNippori-2005, BD Nippori" font-size="54.707577" font-weight="200" transform="matrix(.93 .36 -.37 .93 402.82 78.39)">.app</text></g></svg>

<svg id="Layer_1" data-name="Layer 1" xmlns="http://www.w3.org/2000/svg" viewBox="0 0 570 126"><path d="M86.14,125.1H72.39V84.3c0-9-4.54-12.8-9.22-13.4v-.3c5.74-1.2,9.22-4.82,9.22-14.15V22.58c0-4.22-2.57-6-6.35-6H19.8V125.1H6V4.66H64.83c13.75,0,21.31,5.42,21.31,19.72V55.25c0,9.18-4.23,13.54-11.18,15.5v.3c6.65.76,11.18,5,11.18,14.15ZM68.61,58c0,7.22-5.44,11-12.39,11H23.58V20.32h41.1c3,0,3.93.75,3.93,4.22Zm0,67.14H54.86V84.6H37.33v40.5H23.58V72.71H56.22c6.5,0,12.39,3.76,12.39,10.69Zm-13.75-68V32.36H37.33V57.05Z" style="fill:#dc127c"/><path d="M215.35,125.1H201.6V16.56h-3.93l-40.95,70.9-41-70.9H112V125.1H98.23V4.66h24.48l34.16,61.27,33.7-61.27h24.78Zm-17.53,0h-13.3V71.81l-25.69,43.05h-4.08L129.06,71.5v53.6h-13.3V23.63l39.45,68.2h3l39.59-68.2Z" style="fill:#dc127c"/><path d="M307.54,125.1H293.79V84.3c0-9-4.54-12.8-9.22-13.4v-.3c5.74-1.2,9.22-4.82,9.22-14.15V22.58c0-4.22-2.57-6-6.35-6H241.2V125.1H227.45V4.66h58.78c13.75,0,21.31,5.42,21.31,19.72V55.25c0,9.18-4.23,13.54-11.18,15.5v.3c6.65.76,11.18,5,11.18,14.15ZM290,58c0,7.22-5.44,11-12.39,11H245V20.32h41.1c3,0,3.93.75,3.93,4.22Zm0,67.14H276.26V84.6H258.73v40.5H245V72.71h32.64c6.5,0,12.39,3.76,12.39,10.69Zm-13.75-68V32.36H258.73V57.05Z" style="fill:#dc127c"/><path d="M333.38,125.1H319.63V4.66h13.75ZM382.2,4.66,359.38,66.08H337.16V4.66h13.76V54.19h.9L368.6,4.66Zm0,120.44H368.45V81.74H350.92V125.1H337.16V69.85h32.65c7.7,0,12.39,3.76,12.39,10.69Zm17.53,0H386V79.33c0-8-6.05-13.25-15-13.25h-7.55L386.13,4.66h13.6l-19.8,52.69h1.81a18.15,18.15,0,0,1,18,18.22Z" style="fill:#dc127c"/><text transform="matrix(0.93, 0.36, -0.37, 0.93, 402.82, 78.39)" style="font-size:54.707576751708984px;fill:#dc127c;font-family:BDNippori-2005, BD Nippori;font-weight:200">.app</text></svg>
